X:524
T:Copenhagen. EHo.524
A:England; East Yorkshire
M:3/8
L:1/16
Q:3/8=50
B:Edward Holmes MS, c1846, Beverley, Yorkshire.
C:
O:
Z:Village Music Project 2018, Jake Wade. Beverley, East Yorks
K:D
y(f<a) | (g<b) (f<a) (e<g) | (f<a) d2 (d<f) | (e<g) A2 (c<e) | (d<f) A2 (f<a) |
(g<b) (f<a) (e<g) | (f<a) d2 (d<f) | (e<g) A2 (c<e) | d4 :|
|:(d<f) | (e<g) A2 (c<e) | d<f A2 (d<f) | (3(efg) (3Ace (3(age) | (d<f) A2 (f<a) |
(g<b) f<a e<g | (f<a) .d2 (d<f) | (e<g) A2 (c<e) | d4 :|
|: a2 "_dolce"| b2a2f2 | d4a2 | b2a2f2 | e4a2 |
b2a2f2 | (dc).d.f(af) | (e^d)(ef).g.e | d4 :|

